www/assets/icons/fireplace.svg

<svg xmlns="http://www.w3.org/2000/svg" width="24" height="24" viewBox="0 0 24 24" fill='currentColor'><path d="M2 2v20h20V2zm9.86 14.96c.76-.24 1.4-1.04 1.53-1.63.13-.56-.1-1.05-.2-1.6-.08-.46-.07-.85.08-1.28.54 1.21 2.15 1.64 1.98 3.18-.19 1.7-2.11 2.38-3.39 1.33M20 20h-2v-2h-2.02A4.98 4.98 0 0 0 17 15c0-1.89-1.09-2.85-1.85-3.37C12.2 9.61 13 7 13 7c-6.73 3.57-6.02 7.47-6 8 .03.96.49 2.07 1.23 3H6v2H4V4h16z"/></svg>

<svg width="24" height="24" viewBox="0 0 24 24" xmlns="http://www.w3.org/2000/svg" fill='currentColor'><path d="M2 2V22H22V2H2ZM11.86 16.96C12.62 16.72 13.26 15.92 13.39 15.33C13.52 14.77 13.29 14.28 13.19 13.73C13.11 13.27 13.12 12.88 13.27 12.45C13.81 13.66 15.42 14.09 15.25 15.63C15.06 17.33 13.14 18.01 11.86 16.96ZM20 20H18V18H15.98C16.61 17.16 17 16.13 17 15C17 13.11 15.91 12.15 15.15 11.63C12.2 9.61 13 7 13 7C6.27 10.57 6.98 14.47 7 15C7.03 15.96 7.49 17.07 8.23 18H6V20H4V4H20V20Z"/></svg>
